<?xml version="1.0" encoding="UTF-8"?>
<map version="1.10" tiledversion="1.10.2" orientation="orthogonal" renderorder="right-down" width="20" height="15" tilewidth="32" tileheight="32" infinite="0" nextlayerid="4" nextobjectid="1">
 <tileset firstgid="1" source="library-flat.tsx"/>
 <tileset firstgid="21" source="library-tiles.tsx"/>
 <layer id="1" name="Ground and Ninja Decorations" width="20" height="15">
  <data encoding="csv">1,1,1,1,1,1,1,1,1,1,1,1,1,1,1,1,1,1,1,1,
1,1,1,1,1,1,1,1,1,1,1,1,1,1,1,1,1,1,1,1,
1,1,1,1,1,1,1,1,1,1,1,1,1,1,1,1,1,1,1,1,
1,1,1,1,1,1,1,1,1,1,1,1,1,1,1,1,1,1,1,1,
1,1,1,1,1,1,1,1,1,1,1,1,1,1,1,1,1,1,1,1,
1,1,1,1,1,1,2,2,2,2,2,2,2,2,1,1,1,1,1,1,
1,1,1,1,1,1,2,2,2,2,2,2,2,2,1,1,1,1,1,1,
1,1,1,1,1,1,2,2,4,2,2,2,2,2,1,1,1,1,1,1,
1,1,1,1,1,1,2,2,5,6,7,2,2,2,1,1,1,1,1,1,
1,1,1,1,1,1,2,2,2,2,2,2,2,2,1,1,1,1,1,1,
1,1,1,1,1,1,2,2,2,2,2,2,2,2,1,1,1,1,1,1,
1,1,1,1,1,1,1,1,1,1,1,1,1,1,1,1,1,1,1,1,
1,1,1,1,1,1,1,1,1,1,1,1,1,1,1,1,1,1,1,1,
1,1,1,1,1,1,1,1,1,1,1,1,1,1,1,1,1,1,1,1,
1,1,1,1,1,1,1,1,1,1,1,1,1,1,1,1,1,1,1,1</data>
 </layer>
 <objectgroup id="2" name="RPGJS Entities"/>
 <layer id="3" name="Collision" width="20" height="15" opacity="0" visible="0">
  <data encoding="csv">23,23,23,23,23,23,23,23,23,23,23,23,23,23,23,23,23,23,23,23,
23,0,0,0,0,0,0,0,0,0,0,0,0,0,0,0,0,0,0,23,
23,0,0,0,0,0,0,0,0,0,0,0,0,0,0,0,0,0,0,23,
23,0,0,0,0,0,0,0,0,0,0,0,0,0,0,0,0,0,0,23,
23,0,0,0,0,0,0,0,0,0,0,0,0,0,0,0,0,0,0,23,
23,0,0,0,0,0,0,0,0,0,0,0,0,0,0,0,0,0,0,23,
23,0,0,0,0,0,0,0,0,0,0,0,0,0,0,0,0,0,0,23,
23,0,0,0,0,0,0,0,0,0,0,0,0,0,0,0,0,0,0,23,
23,0,0,0,0,0,0,0,23,23,23,0,0,0,0,0,0,0,0,23,
23,0,0,0,0,0,0,0,0,0,0,0,0,0,0,0,0,0,0,23,
23,0,0,0,0,0,0,0,0,0,0,0,0,0,0,0,0,0,0,23,
23,0,0,0,0,0,0,0,0,0,0,0,0,0,0,0,0,0,0,23,
23,0,0,0,0,0,0,0,0,0,0,0,0,0,0,0,0,0,0,23,
23,0,0,0,0,0,0,0,0,0,0,0,0,0,0,0,0,0,0,23,
23,23,23,23,23,23,23,23,23,23,23,23,23,23,23,23,23,23,23,23</data>
 </layer>
</map>
