<?xml version="1.0" encoding="UTF-8"?>
<map version="1.10" tiledversion="1.10.2" orientation="orthogonal" renderorder="right-down" width="50" height="60" tilewidth="32" tileheight="32" infinite="0" nextlayerid="4" nextobjectid="1">
 <tileset firstgid="1" source="world-flat.tsx"/>
 <tileset firstgid="201" source="world-tiles.tsx"/>
 <layer id="1" name="Ground and Ninja Decorations" width="50" height="60">
  <data encoding="csv">1,5,1,1,1,5,6,1,1,1,6,6,7,1,1,1,1,1,1,6,6,1,6,8,5,1,9,10,11,1,1,1,5,6,6,5,1,1,8,1,1,1,1,1,1,1,6,5,5,7,
1,7,6,1,1,1,1,1,1,6,6,8,6,1,1,5,5,1,1,7,1,5,12,13,14,15,16,17,18,19,20,21,22,1,23,24,25,5,6,1,1,6,6,5,1,6,1,1,8,1,
1,1,8,7,5,1,6,1,1,5,1,1,1,6,1,1,8,1,8,5,1,5,26,27,28,29,16,30,1,31,32,33,34,7,35,36,37,6,5,6,7,5,1,8,5,6,1,8,8,6,
1,5,6,8,6,1,1,5,8,5,8,1,1,1,1,6,1,6,1,1,1,1,38,39,40,41,16,42,43,44,45,46,47,1,48,49,50,1,7,5,6,8,8,6,7,1,1,1,7,1,
1,1,7,8,8,8,8,5,8,5,1,1,1,1,1,1,7,6,1,6,1,6,51,52,53,54,16,30,1,55,56,57,58,7,59,60,61,1,7,1,1,7,1,6,7,7,1,1,5,7,
1,7,7,6,1,5,1,1,6,7,6,1,1,1,8,8,8,1,8,1,1,1,62,63,64,65,16,30,66,67,68,69,70,1,71,72,73,5,5,1,1,8,6,8,7,6,7,1,6,8,
1,6,7,1,5,6,1,1,1,6,6,6,7,6,5,1,1,1,8,6,9,10,10,10,10,10,74,30,5,9,10,11,7,1,1,1,7,1,75,1,1,6,1,5,7,1,1,6,6,1,
1,7,5,6,6,1,1,1,6,8,1,6,1,5,1,1,8,5,6,7,76,77,77,78,77,79,80,81,10,74,80,81,10,10,10,10,10,10,82,10,10,10,11,8,8,1,6,1,1,1,
1,1,5,7,8,7,1,8,5,7,1,8,1,6,7,1,6,7,1,1,1,1,1,83,5,76,79,80,17,77,77,77,77,77,79,84,17,77,77,77,77,77,18,1,7,5,1,1,7,1,
1,1,6,7,1,1,1,1,1,5,6,5,1,5,1,5,6,6,1,1,1,6,1,1,1,6,16,17,18,6,85,86,1,6,76,77,18,7,8,6,87,88,1,7,8,1,1,1,8,1,
1,7,6,1,1,7,7,1,5,8,1,1,1,5,1,85,89,1,6,6,7,90,91,1,90,92,16,30,1,87,93,94,88,6,1,6,85,89,1,1,95,96,1,6,1,1,5,5,5,8,
1,1,1,1,1,1,1,5,1,7,1,1,1,1,87,93,94,88,1,1,8,97,98,99,97,98,16,30,5,100,101,102,103,85,89,87,93,94,88,85,89,8,1,1,1,6,1,6,5,1,
1,1,7,1,8,8,6,6,1,1,1,1,5,5,104,105,106,103,85,89,7,107,108,109,107,108,16,30,110,85,111,96,87,93,94,112,105,113,114,93,94,115,7,6,1,1,1,1,6,5,
1,5,8,1,116,117,116,116,117,1,6,7,8,8,1,7,116,87,93,94,115,118,119,7,120,119,16,30,87,93,94,88,121,105,113,103,5,6,122,105,113,103,1,6,5,1,8,1,8,5,
1,1,8,116,123,117,117,116,123,116,8,8,6,1,8,1,6,124,105,113,103,1,1,9,10,10,74,30,121,125,113,103,85,89,87,115,126,1,127,128,5,1,8,6,1,1,7,1,1,5,
1,1,6,116,116,116,117,116,116,123,8,1,1,6,1,129,130,10,10,10,10,10,10,74,80,84,131,81,10,10,11,87,93,94,132,96,1,7,133,134,8,7,6,1,5,5,6,5,1,7,
1,1,7,8,123,116,116,116,117,7,7,1,8,85,89,6,76,135,136,77,79,80,131,80,80,17,77,77,79,84,30,100,105,113,103,117,8,1,137,138,1,8,6,6,7,1,1,5,1,1,
1,85,89,1,5,1,6,1,6,8,7,116,87,93,94,139,87,93,94,88,76,77,79,80,131,30,85,89,16,80,30,5,6,7,6,7,1,6,140,141,5,1,8,1,8,6,8,7,1,1,
87,93,94,88,8,5,8,1,8,5,1,87,142,105,143,144,145,105,113,103,87,88,16,17,77,146,93,94,147,79,81,10,10,11,1,6,8,148,149,5,85,86,1,8,6,1,1,1,8,1,
121,105,113,114,88,6,1,5,5,1,85,111,96,8,87,93,94,88,5,85,111,96,76,150,6,104,125,113,151,147,77,77,77,152,153,130,11,154,7,87,93,94,155,5,6,8,1,1,7,5,
1,85,89,95,156,116,6,1,116,87,93,94,157,89,121,125,113,158,87,93,94,115,1,159,11,1,116,117,95,96,7,6,1,6,6,16,81,11,6,121,160,161,103,1,1,1,1,8,5,5,
87,93,94,139,116,1,6,1,116,121,105,162,93,94,155,163,89,1,121,105,113,144,89,76,152,43,5,5,1,164,85,89,6,1,5,16,80,30,1,87,93,94,115,7,1,1,6,1,1,5,
121,125,113,103,116,5,6,1,85,89,6,104,105,113,114,93,94,88,5,1,87,93,94,165,1,1,1,5,1,87,93,94,88,5,129,166,84,30,85,145,105,113,144,89,1,1,5,1,1,1,
1,1,5,6,6,8,1,87,93,94,88,1,85,89,121,105,113,158,163,89,104,105,113,103,1,8,1,85,89,104,167,168,169,1,5,16,80,170,93,94,165,87,93,94,88,8,1,8,1,1,
1,8,6,6,1,1,8,122,105,113,103,87,93,94,88,6,1,87,93,94,139,87,88,6,7,1,87,93,94,88,87,93,94,88,1,16,17,171,105,113,158,100,105,113,103,1,5,6,1,1,
1,1,5,1,1,5,1,8,5,8,5,104,125,113,103,5,85,172,105,113,114,132,96,1,5,85,145,105,113,144,145,167,113,158,9,74,30,1,123,116,8,1,8,6,1,1,1,6,6,1,
1,7,1,6,8,1,6,7,6,1,1,1,5,7,6,87,93,94,139,85,145,96,1,1,87,93,94,115,87,93,94,139,6,5,16,17,18,123,116,116,5,1,6,6,1,1,6,7,8,1,
1,1,8,7,1,1,1,1,1,1,1,5,6,8,6,121,105,113,151,93,94,155,85,89,121,173,174,103,100,173,174,158,9,10,74,175,86,123,116,85,89,5,6,5,1,5,1,8,5,5,
1,1,1,7,6,5,6,8,1,6,6,1,1,6,6,5,1,85,172,105,143,114,93,94,115,176,96,85,89,176,156,9,74,17,177,93,94,115,87,93,94,115,7,5,7,1,1,1,1,6,
1,7,6,1,1,1,6,1,5,1,1,5,7,1,1,1,87,93,94,139,163,145,105,113,144,89,87,93,94,88,9,74,17,178,145,167,113,144,145,105,113,144,86,1,6,8,6,7,5,1,
1,7,1,1,7,8,1,5,5,6,6,1,1,1,1,1,121,125,113,151,93,94,165,87,93,94,142,105,143,103,16,17,146,93,94,155,179,93,94,88,87,93,94,88,8,1,6,1,1,8,
1,6,5,5,1,1,8,1,1,7,1,1,8,5,1,5,1,1,1,100,173,174,103,121,173,174,158,1,117,123,16,30,100,173,174,103,121,173,174,103,104,105,106,103,1,1,5,1,1,1,
1,1,5,1,8,8,5,6,1,1,1,5,7,1,1,1,1,6,7,1,176,96,85,89,180,156,85,89,116,117,16,30,117,176,96,85,89,176,181,85,89,6,6,85,89,1,1,7,1,1,
1,1,1,1,8,5,5,7,1,1,6,1,5,8,1,7,1,5,1,1,1,87,93,94,88,87,93,94,139,6,16,30,87,88,179,93,94,88,87,93,94,88,87,93,94,88,1,1,6,6,
1,1,1,1,1,1,1,1,1,1,1,1,1,1,1,1,1,1,1,1,1,100,105,143,144,145,105,113,103,1,16,30,182,96,121,105,183,184,121,105,113,103,121,105,113,103,1,1,1,1,
1,1,1,1,1,1,1,1,1,1,1,1,1,1,1,1,1,1,1,1,1,8,1,87,93,94,139,7,1,5,16,30,1,5,7,87,93,94,88,1,5,1,1,1,1,1,1,1,1,1,
1,1,1,1,1,1,1,1,1,1,1,1,1,1,1,1,1,1,1,1,1,1,5,100,105,113,103,1,7,1,16,30,117,1,1,121,105,113,185,1,6,1,1,1,1,1,1,1,1,1,
1,1,1,1,1,1,1,1,1,1,1,1,1,1,1,1,1,1,1,1,1,5,1,8,1,7,5,8,6,1,16,30,87,8,1,6,5,1,8,7,6,1,1,1,1,1,1,1,1,1,
1,1,1,1,1,1,1,1,1,1,1,1,1,1,1,1,1,1,1,1,1,8,1,7,8,1,6,6,1,5,16,30,182,1,5,5,1,1,1,1,1,1,1,1,1,1,1,1,1,1,
1,1,1,1,1,1,1,1,1,1,1,1,1,1,1,1,1,1,1,1,1,6,7,1,7,1,1,6,7,6,16,30,1,7,6,1,5,1,1,1,8,1,1,1,1,1,1,1,1,1,
1,1,1,1,1,1,1,1,1,1,1,1,1,1,1,1,1,1,1,1,1,5,1,1,5,1,1,1,1,1,16,30,117,1,6,6,8,8,8,1,7,1,1,1,1,1,1,1,1,1,
1,1,1,1,1,1,1,1,1,1,1,1,1,1,1,1,1,1,1,1,1,8,7,6,8,1,6,5,1,5,16,30,87,1,1,8,1,1,5,6,5,1,1,1,1,1,1,1,1,1,
1,1,1,1,1,1,1,1,1,1,1,1,1,1,1,1,1,1,1,1,1,1,6,1,5,5,1,6,8,6,16,30,182,1,1,6,6,8,1,8,1,1,1,1,1,1,1,1,1,1,
1,1,1,1,1,1,1,1,1,1,1,1,1,1,1,1,1,1,1,1,1,8,8,7,6,5,5,8,5,6,16,30,1,8,8,1,8,1,8,5,8,1,1,1,1,1,1,1,1,1,
1,1,1,1,1,1,1,1,1,1,1,1,1,1,1,1,1,1,1,1,1,6,7,6,6,1,1,6,6,4,4,4,4,4,1,1,7,1,5,5,8,1,1,1,1,1,1,1,1,1,
1,1,1,1,1,1,1,1,1,1,1,1,1,1,1,1,1,1,1,1,1,1,1,1,1,1,1,1,1,4,4,4,4,4,1,1,1,1,1,1,1,1,1,1,1,1,1,1,1,1,
3,3,3,3,3,3,3,3,3,3,3,3,3,3,3,3,3,3,3,3,3,3,3,3,3,3,3,3,3,4,4,4,4,4,3,3,3,3,3,3,3,3,3,3,3,3,3,3,3,3,
3,3,3,3,3,3,3,3,3,3,3,3,3,3,3,3,3,3,3,3,3,3,3,3,3,3,3,3,3,4,4,4,4,4,3,3,3,3,3,3,3,3,3,3,3,3,3,3,3,3,
3,3,3,3,3,3,3,3,3,3,3,3,3,3,3,3,3,3,3,3,3,3,3,3,3,3,3,3,3,4,4,4,4,4,3,3,3,3,3,3,3,3,3,3,3,3,3,3,3,3,
3,3,3,3,3,3,3,3,3,3,3,3,3,3,3,3,3,3,3,3,3,3,3,3,3,3,3,3,3,4,4,4,4,4,3,3,3,3,3,3,3,3,3,3,3,3,3,3,3,3,
3,3,3,3,3,3,3,3,3,3,3,3,3,3,3,3,3,3,3,3,3,3,3,3,3,3,3,3,3,4,4,4,4,4,3,3,3,3,3,3,3,3,3,3,3,3,3,3,3,3,
3,3,3,3,3,3,3,3,3,3,3,3,3,3,3,3,3,3,3,3,3,3,3,3,3,3,3,3,3,4,4,4,4,4,3,3,3,3,3,3,3,3,3,3,3,3,3,3,3,3,
3,3,3,3,3,3,3,3,3,3,3,3,3,3,3,3,3,3,3,3,3,3,3,3,186,187,188,189,190,4,4,4,4,4,3,3,3,3,3,3,3,3,3,3,3,3,3,3,3,3,
3,3,3,3,3,3,3,3,3,3,3,3,3,3,3,3,3,3,3,3,3,3,3,3,191,192,193,194,195,4,4,4,4,4,3,3,3,3,3,3,3,3,3,3,3,3,3,3,3,3,
3,3,3,3,3,3,3,3,3,3,3,3,3,3,3,3,3,3,3,3,3,3,3,3,3,3,3,3,3,4,4,4,4,4,3,3,3,3,3,3,3,3,3,3,3,3,3,3,3,3,
3,3,3,3,3,3,3,3,3,3,3,3,3,3,3,3,3,3,3,3,3,3,3,3,3,3,3,3,3,4,4,4,4,4,3,3,3,3,3,3,3,3,3,3,3,3,3,3,3,3,
3,3,3,3,3,3,3,3,3,3,3,3,3,3,3,3,3,3,3,3,3,3,3,3,3,3,3,3,3,4,4,4,4,4,3,3,3,3,3,3,3,3,3,3,3,3,3,3,3,3,
3,3,3,3,3,3,3,3,3,3,3,3,3,3,3,3,3,3,3,3,3,3,3,3,3,3,3,3,3,4,4,4,4,4,3,3,3,3,3,3,3,3,3,3,3,3,3,3,3,3,
3,3,3,3,3,3,3,3,3,3,3,3,3,3,3,3,3,3,3,3,3,3,3,3,3,3,3,3,3,4,4,4,4,4,3,3,3,3,3,3,3,3,3,3,3,3,3,3,3,3,
3,3,3,3,3,3,3,3,3,3,3,3,3,3,3,3,3,3,3,3,3,3,3,3,3,3,3,3,3,4,4,4,4,4,3,3,3,3,3,3,3,3,3,3,3,3,3,3,3,3</data>
 </layer>
 <objectgroup id="2" name="RPGJS Entities"/>
 <layer id="3" name="Collision" width="50" height="60" opacity="0" visible="0">
  <data encoding="csv">206,206,206,206,206,206,206,206,206,206,206,206,206,206,206,206,206,206,206,206,206,206,206,206,206,206,206,206,206,206,206,206,206,206,206,206,206,206,206,206,206,206,206,206,206,206,206,206,206,206,
206,0,0,0,0,0,0,0,0,0,0,0,0,0,0,0,0,0,0,0,0,0,0,0,0,0,0,0,0,0,0,0,0,0,0,0,0,0,0,0,0,0,0,0,0,0,0,0,0,206,
206,0,0,0,0,0,0,0,0,0,0,0,0,0,0,0,0,0,0,0,0,0,0,0,0,0,0,0,0,0,0,0,0,0,0,0,0,0,0,0,0,0,0,0,0,0,0,0,0,206,
206,0,0,0,0,0,0,0,0,0,0,0,0,0,0,0,0,0,0,0,0,0,206,206,206,206,0,0,0,206,206,206,206,0,0,0,0,0,0,0,0,0,0,0,0,0,0,0,0,206,
206,0,0,0,0,0,0,0,0,0,0,0,0,0,0,0,0,0,0,0,0,0,206,206,206,206,0,0,0,206,206,206,206,0,206,206,206,0,0,0,0,0,0,0,0,0,0,0,0,206,
206,0,0,0,0,0,0,0,0,0,0,0,0,0,0,0,0,0,0,0,0,0,206,206,206,206,0,0,206,206,206,206,206,0,206,206,206,0,0,0,0,0,0,0,0,0,0,0,0,206,
206,0,0,0,0,0,0,0,0,0,0,0,0,0,0,0,0,0,0,0,0,0,0,0,0,0,0,0,0,0,0,0,0,0,0,0,0,0,0,0,0,0,0,0,0,0,0,0,0,206,
206,0,0,0,0,0,0,0,0,0,0,0,0,0,0,0,0,0,0,0,0,0,0,0,0,0,0,0,0,0,0,0,0,0,0,0,0,0,0,0,0,0,0,0,0,0,0,0,0,206,
206,0,0,0,0,0,0,0,0,0,0,0,0,0,0,0,0,0,0,0,0,0,0,0,0,0,0,0,0,0,0,0,0,0,0,0,0,0,0,0,0,0,0,0,0,0,0,0,0,206,
206,0,0,0,0,0,0,0,0,0,0,0,0,0,0,0,0,0,0,0,0,0,0,0,0,0,0,0,0,0,206,206,0,0,0,0,0,0,0,0,206,206,0,0,0,0,0,0,0,206,
206,0,0,0,0,0,0,0,0,0,0,0,0,0,0,206,206,0,0,0,0,0,0,0,0,0,0,0,0,206,206,206,206,0,0,0,206,206,0,0,206,206,0,0,0,0,0,0,0,206,
206,0,0,0,0,0,0,0,0,0,0,0,0,0,206,206,206,206,0,0,0,206,206,0,206,206,0,0,0,206,206,206,206,206,206,206,206,206,206,206,206,0,0,0,0,0,0,0,0,206,
206,0,0,0,0,0,0,0,0,0,0,0,0,0,206,206,206,206,206,206,0,206,206,206,206,206,0,0,0,206,206,206,206,206,206,206,206,206,206,206,206,206,0,0,0,0,0,0,0,206,
206,0,0,0,206,206,206,206,206,0,0,0,0,0,0,0,206,206,206,206,206,206,206,0,206,206,0,0,206,206,206,206,206,206,206,206,0,0,206,206,206,206,0,0,0,0,0,0,0,206,
206,0,0,206,206,206,206,206,206,206,0,0,0,0,0,0,0,206,206,206,206,0,0,0,0,0,0,0,206,206,206,206,206,206,206,206,0,0,0,0,0,0,0,0,0,0,0,0,0,206,
206,0,0,206,206,206,206,206,206,206,0,0,0,0,0,0,0,0,0,0,0,0,0,0,0,0,0,0,0,0,0,206,206,206,206,206,0,0,206,206,0,0,0,0,0,0,0,0,0,206,
206,0,0,0,206,206,206,206,206,0,0,0,0,206,206,0,0,206,206,0,0,0,0,0,0,0,0,0,0,0,0,206,206,206,206,206,0,0,206,0,0,0,0,0,0,0,0,0,0,206,
206,206,206,0,0,0,0,0,0,0,0,206,206,206,206,206,206,206,206,206,0,0,0,0,0,0,206,206,0,0,0,0,0,0,0,0,0,0,0,0,0,0,0,0,0,0,0,0,0,206,
206,206,206,206,0,0,0,0,0,0,0,206,206,206,206,206,206,206,206,206,206,206,0,0,0,206,206,206,206,0,0,0,0,0,0,0,0,0,0,0,206,206,0,0,0,0,0,0,0,206,
206,206,206,206,206,0,0,0,0,0,206,206,206,0,206,206,206,206,0,206,206,206,0,0,0,206,206,206,206,206,0,0,0,0,0,0,0,0,0,206,206,206,206,0,0,0,0,0,0,206,
206,206,206,206,206,206,0,0,206,206,206,206,206,206,206,206,206,206,206,206,206,206,0,0,0,0,206,206,206,206,0,0,0,0,0,0,0,0,0,206,206,206,206,0,0,0,0,0,0,206,
206,206,206,206,206,0,0,0,206,206,206,206,206,206,206,206,206,0,206,206,206,206,206,0,0,0,0,0,0,0,206,206,0,0,0,0,0,0,0,206,206,206,206,0,0,0,0,0,0,206,
206,206,206,206,206,0,0,0,206,206,0,206,206,206,206,206,206,206,0,0,206,206,206,206,0,0,0,0,0,206,206,206,206,0,0,0,0,0,206,206,206,206,206,206,0,0,0,0,0,206,
206,0,0,0,0,0,0,206,206,206,206,0,206,206,206,206,206,206,206,206,206,206,206,206,0,0,0,206,206,206,206,206,206,0,0,0,0,206,206,206,206,206,206,206,206,0,0,0,0,206,
206,0,0,0,0,0,0,206,206,206,206,206,206,206,206,0,0,206,206,206,206,206,206,0,0,0,206,206,206,206,206,206,206,206,0,0,0,206,206,206,206,206,206,206,206,0,0,0,0,206,
206,0,0,0,0,0,0,0,0,0,0,206,206,206,206,0,206,206,206,206,206,206,206,0,0,206,206,206,206,206,206,206,206,206,0,0,0,0,206,206,0,0,0,0,0,0,0,0,0,206,
206,0,0,0,0,0,0,0,0,0,0,0,0,0,0,206,206,206,206,206,206,206,0,0,206,206,206,206,206,206,206,206,0,0,0,0,0,206,206,206,0,0,0,0,0,0,0,0,0,206,
206,0,0,0,0,0,0,0,0,0,0,0,0,0,0,206,206,206,206,206,206,206,206,206,206,206,206,206,206,206,206,206,0,0,0,206,206,206,206,206,206,0,0,0,0,0,0,0,0,206,
206,0,0,0,0,0,0,0,0,0,0,0,0,0,0,0,0,206,206,206,206,206,206,206,206,206,206,206,206,206,206,0,0,0,206,206,206,206,206,206,206,206,0,0,0,0,0,0,0,206,
206,0,0,0,0,0,0,0,0,0,0,0,0,0,0,0,206,206,206,206,206,206,206,206,206,206,206,206,206,206,0,0,0,206,206,206,206,206,206,206,206,206,206,0,0,0,0,0,0,206,
206,0,0,0,0,0,0,0,0,0,0,0,0,0,0,0,206,206,206,206,206,206,206,206,206,206,206,206,206,206,0,0,206,206,206,206,206,206,206,206,206,206,206,206,0,0,0,0,0,206,
206,0,0,0,0,0,0,0,0,0,0,0,0,0,0,0,0,0,0,206,206,206,206,206,206,206,206,0,206,206,0,0,206,206,206,206,206,206,206,206,206,206,206,206,0,0,0,0,0,206,
206,0,0,0,0,0,0,0,0,0,0,0,0,0,0,0,0,0,0,0,206,206,206,206,206,206,206,206,206,206,0,0,206,206,206,206,206,206,206,206,206,0,0,206,206,0,0,0,0,206,
206,0,0,0,0,0,0,0,0,0,0,0,0,0,0,0,0,0,0,0,0,206,206,206,206,206,206,206,206,0,0,0,206,206,206,206,206,206,206,206,206,206,206,206,206,206,0,0,0,206,
206,206,206,206,206,206,206,206,206,206,206,206,206,206,206,206,206,206,206,206,206,206,206,206,206,206,206,206,206,0,0,0,206,206,206,206,206,206,206,206,206,206,206,206,206,206,206,206,206,206,
206,206,206,206,206,206,206,206,206,206,206,206,206,206,206,206,206,206,206,206,206,0,0,206,206,206,206,0,0,0,0,0,0,0,0,206,206,206,206,0,0,206,206,206,206,206,206,206,206,206,
206,206,206,206,206,206,206,206,206,206,206,206,206,206,206,206,206,206,206,206,206,0,0,206,206,206,206,0,0,0,0,0,0,0,0,206,206,206,206,0,0,206,206,206,206,206,206,206,206,206,
206,206,206,206,206,206,206,206,206,206,206,206,206,206,206,206,206,206,206,206,206,0,0,0,0,0,0,0,0,0,0,0,0,0,0,0,0,0,0,0,0,206,206,206,206,206,206,206,206,206,
206,206,206,206,206,206,206,206,206,206,206,206,206,206,206,206,206,206,206,206,206,0,0,0,0,0,0,0,0,0,0,0,0,0,0,0,0,0,0,0,0,206,206,206,206,206,206,206,206,206,
206,206,206,206,206,206,206,206,206,206,206,206,206,206,206,206,206,206,206,206,206,0,0,0,0,0,0,0,0,0,0,0,0,0,0,0,0,0,0,0,0,206,206,206,206,206,206,206,206,206,
206,206,206,206,206,206,206,206,206,206,206,206,206,206,206,206,206,206,206,206,206,0,0,0,0,0,0,0,0,0,0,0,0,0,0,0,0,0,0,0,0,206,206,206,206,206,206,206,206,206,
206,206,206,206,206,206,206,206,206,206,206,206,206,206,206,206,206,206,206,206,206,0,0,0,0,0,0,0,0,0,0,0,0,0,0,0,0,0,0,0,0,206,206,206,206,206,206,206,206,206,
206,206,206,206,206,206,206,206,206,206,206,206,206,206,206,206,206,206,206,206,206,0,0,0,0,0,0,0,0,0,0,0,0,0,0,0,0,0,0,0,0,206,206,206,206,206,206,206,206,206,
206,206,206,206,206,206,206,206,206,206,206,206,206,206,206,206,206,206,206,206,206,0,0,0,0,0,0,0,0,0,0,0,0,0,0,0,0,0,0,0,0,206,206,206,206,206,206,206,206,206,
206,206,206,206,206,206,206,206,206,206,206,206,206,206,206,206,206,206,206,206,206,206,206,206,206,206,206,206,206,0,0,0,0,0,206,206,206,206,206,206,206,206,206,206,206,206,206,206,206,206,
206,206,206,206,206,206,206,206,206,206,206,206,206,206,206,206,206,206,206,206,206,206,206,206,206,206,206,206,206,0,0,0,0,0,206,206,206,206,206,206,206,206,206,206,206,206,206,206,206,206,
206,206,206,206,206,206,206,206,206,206,206,206,206,206,206,206,206,206,206,206,206,206,206,206,206,206,206,206,206,0,0,0,0,0,206,206,206,206,206,206,206,206,206,206,206,206,206,206,206,206,
206,206,206,206,206,206,206,206,206,206,206,206,206,206,206,206,206,206,206,206,206,206,206,206,206,206,206,206,206,0,0,0,0,0,206,206,206,206,206,206,206,206,206,206,206,206,206,206,206,206,
206,206,206,206,206,206,206,206,206,206,206,206,206,206,206,206,206,206,206,206,206,206,206,206,206,206,206,206,206,0,0,0,0,0,206,206,206,206,206,206,206,206,206,206,206,206,206,206,206,206,
206,206,206,206,206,206,206,206,206,206,206,206,206,206,206,206,206,206,206,206,206,206,206,206,206,206,206,206,206,0,0,0,0,0,206,206,206,206,206,206,206,206,206,206,206,206,206,206,206,206,
206,206,206,206,206,206,206,206,206,206,206,206,206,206,206,206,206,206,206,206,206,206,206,206,206,206,206,206,206,0,0,0,0,0,206,206,206,206,206,206,206,206,206,206,206,206,206,206,206,206,
206,206,206,206,206,206,206,206,206,206,206,206,206,206,206,206,206,206,206,206,206,206,206,206,206,206,206,206,206,0,0,0,0,0,206,206,206,206,206,206,206,206,206,206,206,206,206,206,206,206,
206,206,206,206,206,206,206,206,206,206,206,206,206,206,206,206,206,206,206,206,206,206,206,206,206,206,206,206,206,0,0,0,0,0,206,206,206,206,206,206,206,206,206,206,206,206,206,206,206,206,
206,206,206,206,206,206,206,206,206,206,206,206,206,206,206,206,206,206,206,206,206,206,206,206,206,206,206,206,206,0,0,0,0,0,206,206,206,206,206,206,206,206,206,206,206,206,206,206,206,206,
206,206,206,206,206,206,206,206,206,206,206,206,206,206,206,206,206,206,206,206,206,206,206,206,206,206,206,206,206,0,0,0,0,0,206,206,206,206,206,206,206,206,206,206,206,206,206,206,206,206,
206,206,206,206,206,206,206,206,206,206,206,206,206,206,206,206,206,206,206,206,206,206,206,206,206,206,206,206,206,0,0,0,0,0,206,206,206,206,206,206,206,206,206,206,206,206,206,206,206,206,
206,206,206,206,206,206,206,206,206,206,206,206,206,206,206,206,206,206,206,206,206,206,206,206,206,206,206,206,206,0,0,0,0,0,206,206,206,206,206,206,206,206,206,206,206,206,206,206,206,206,
206,206,206,206,206,206,206,206,206,206,206,206,206,206,206,206,206,206,206,206,206,206,206,206,206,206,206,206,206,0,0,0,0,0,206,206,206,206,206,206,206,206,206,206,206,206,206,206,206,206,
206,206,206,206,206,206,206,206,206,206,206,206,206,206,206,206,206,206,206,206,206,206,206,206,206,206,206,206,206,0,0,0,0,0,206,206,206,206,206,206,206,206,206,206,206,206,206,206,206,206,
206,206,206,206,206,206,206,206,206,206,206,206,206,206,206,206,206,206,206,206,206,206,206,206,206,206,206,206,206,206,206,206,206,206,206,206,206,206,206,206,206,206,206,206,206,206,206,206,206,206</data>
 </layer>
</map>
